X: 2
T: Cambo March, The
Z: ceolachan
S: https://thesession.org/tunes/6389#setting18122
R: barndance
M: 4/4
L: 1/8
K: Gmaj
d4 g2 d>d | e4 g2 d>d | a4 a>^ga>b | a6 dd/d/ | d4 gG (3Bcd | e4 a3 a | g2 g2 f>gaf | g6 :|d>d dd/d/ dBdg | d>B d/e/f/g/ d3 d | adbd adbg | a/b/a/g/ f>e d/e/d/c/ B>c |dd/d/ dd/d/ dB (3deg | dBdg d2 (3Bcd | ad/d/ dc/d/ bd/d/ dc/d/ | g2 g/a/g/f/ g2 :|
